X: 2
T: The Cuil Aodha
R: slide
M: 12/8
L: 1/8
K: Dmaj
|: Bcd Bcd c2 B A2 A | Bcd e2 f g3 f2 g | a2 f gfe f2 d A3 | Bcd e2 c d3 d3 :|
|: a2 f gfe f2 d A2 A | Bcd e2 f g3 f2 g | agf gfe f2 d A2 A | Bcd e2 c d3 d3 :|

T: Michael Russell's
R: slide
M: 12/8
L: 1/8
K: Dmaj
A3 A2F ABA F2E|DFA B2A B2A F3|
dcd a2g f2d B2A|1 BcA BAB d2d dcB :|2 BcA BAB d3 dz2||
dcd a2g f2d B2A |BcA BcA B2A F3 |
dcd a2g f2d B2A |BcA BAB d3 dz2:||

T:Brosna Slide #2
M:12/8
L:1/8
R:Slide
K:G
B2B cBA G2E D2G | EFG A2B c3 BA2 |
B2B cBA G2E D2G | EFG AFD G3 G2A :|
|: D2B BAB d2B BAB | D2F A2B c2A 2BA |
D2B BAB d2B BAG | ABA DFA G3 G2E :||
